_old/svg/om.svg

<svg height="367" viewBox="0 0 360 365" width="356" xmlns="http://www.w3.org/2000/svg"><path d="m90.456847 353.9498c-38.6595-13.81495-66.730127-48.19141-77.84436-95.3314-5.0440603-21.39519-6.4703473-56.74856-2.288893-56.74856 1.38924 0 5.099626 9.70072 8.245378 21.55716 6.88392 25.94452 18.625388 50.34155 29.967016 62.26707 18.838729 19.80835 65.499612 27.56622 92.385072 15.35987 20.94303-9.5085 29.43591-32.10791 20.32889-54.09463-7.03753-16.98988-23.00294-22.67095-52.74161-18.76734 0 0-18.225506-19.61799-24.031923-54.45649l18.680963 1.69391c22.49993 2.04023 39.48794-2.93334 48.30498-14.14211 8.28529-10.53309 8.10614-14.60682-1.11395-25.32571-13.30445-15.46729-37.1933-11.54909-85.561833 14.03365l-24.404945-40.91004 10.231505-7.80398c25.64025-19.556861 70.160433-29.333871 95.496973-20.972031 23.0783 7.61648 40.01713 37.838381 35.49236 63.323811-3.0592 17.22988-16.87495 41.36226-27.54878 48.12041l-9.20507 5.82823 12.71489 5.7336c21.60667 9.74311 34.7971 2.29512 50.5565-28.54673 21.80948-42.68159 35.95449-53.73069 68.84657-53.77798 15.31518-.02204 20.7661 1.58448 31.93654 9.41259 27.87901 19.53706 43.05908 59.99383 39.72492 105.86962-4.2233 58.10163-31.7443 93.34329-72.89389 93.34329-22.58329 0-37.13964-7.92075-48.72686-26.51445-10.17753-16.33229-14.76395-48.67868-8.91924-62.90787 2.80403-6.82637 3.31087-7.05791 3.49418-1.59683.33693 10.04003 11.75936 26.35863 22.24604 31.78149 25.72967 13.30534 62.66652-3.41142 77.28005-34.97515 11.09507-23.9638 5.14273-70.18664-10.08748-78.33768-3.18631-1.70528-11.05995-3.1005-17.49644-3.1005-13.68226 0-24.42731 9.83653-39.49177 36.15272-5.20821 9.09839-13.9732 20.85401-19.47777 26.12354-8.94352 8.56184-12.13717 9.58097-30.02419 9.58097h-20.01655l6.47003 14.37144c9.26095 20.57068 8.82279 53.99335-.97439 74.33978-8.65704 17.97905-28.67358 36.18122-44.67602 40.62666-15.57802 4.32747-40.94585 3.76797-54.876893-1.21033zm75.376953-278.026061c-8.85472-15.10934-14.30406-43.317581-8.36834-43.317581 6.97229 15.126161 21.26491 28.620943 36.56863 38.037101 27.48682 13.30607 55.35848 7.93527 85.80838-16.53502 6.70348-5.38696 12.63984-9.195101 13.19203-8.462541 7.4352 11.538535 20.2965 20.967563 24.54769 34.375751 0 5.65728-24.35352 21.938881-43.57005 29.128621-47.6295 13.72053-80.04616 8.29297-108.17834-33.226331zm24.00223-34.926511 31.00911-34.3834792 34.46079 31.9006692c-11.78717 9.708131-20.29599 24.7747-33.76202 32.415591-10.64019-7.843736-26.52083-17.092193-31.70788-29.932781z" fill="#444"/></svg>

<?xml version="1.0" encoding="UTF-8" standalone="no"?>
<svg
   xmlns:dc="http://purl.org/dc/elements/1.1/"
   xmlns:cc="http://creativecommons.org/ns#"
   xmlns:rdf="http://www.w3.org/1999/02/22-rdf-syntax-ns#"
   xmlns:svg="http://www.w3.org/2000/svg"
   xmlns="http://www.w3.org/2000/svg"
   xmlns:sodipodi="http://sodipodi.sourceforge.net/DTD/sodipodi-0.dtd"
   xmlns:inkscape="http://www.inkscape.org/namespaces/inkscape"
   width="356"
   height="367"
   version="1.1"
   id="svg817"
   viewBox="0 0 360 365"
   sodipodi:docname="om.svg"
   inkscape:version="0.92.2 (5c3e80d, 2017-08-06)">
  <metadata
     id="metadata823">
    <rdf:RDF>
      <cc:Work
         rdf:about="">
        <dc:format>image/svg+xml</dc:format>
        <dc:type
           rdf:resource="http://purl.org/dc/dcmitype/StillImage" />
        <dc:title></dc:title>
      </cc:Work>
    </rdf:RDF>
  </metadata>
  <defs
     id="defs821" />
  <sodipodi:namedview
     pagecolor="#ffffff"
     bordercolor="#666666"
     borderopacity="1"
     objecttolerance="10"
     gridtolerance="10"
     guidetolerance="10"
     inkscape:pageopacity="0"
     inkscape:pageshadow="2"
     inkscape:window-width="1440"
     inkscape:window-height="924"
     id="namedview819"
     showgrid="false"
     inkscape:zoom="1.5940054"
     inkscape:cx="178"
     inkscape:cy="183.5"
     inkscape:window-x="0"
     inkscape:window-y="23"
     inkscape:window-maximized="0"
     inkscape:current-layer="svg817" />
  <path
     d="M 90.456847,353.9498 C 51.797347,340.13485 23.72672,305.75839 12.612487,258.6184 C 7.5684267,237.22321 6.1421397,201.86984 10.323594,201.86984 C 11.712834,201.86984 15.42322,211.57056 18.568972,223.427 C 25.452892,249.37152 37.19436,273.76855 48.535988,285.69407 C 67.374717,305.50242 114.0356,313.26029 140.92106,301.05394 C 161.86409,291.54544 170.35697,268.94603 161.24995,246.95931 C 154.21242,229.96943 138.24701,224.28836 108.50834,228.19197 C 108.50834,228.19197 90.282834,208.57398 84.476417,173.73548 L 103.15738,175.42939 C 125.65731,177.46962 142.64532,172.49605 151.46236,161.28728 C 159.74765,150.75419 159.5685,146.68046 150.34841,135.96157 C 137.04396,120.49428 113.15511,124.41248 64.786577,149.99522 L 40.381632,109.08518 L 50.613137,101.2812 C 76.253387,81.724339 120.77357,71.947329 146.11011,80.309169 C 169.18841,87.925649 186.12724,118.14755 181.60247,143.63298 C 178.54327,160.86286 164.72752,184.99524 154.05369,191.75339 L 144.84862,197.58162 L 157.56351,203.31522 C 179.17018,213.05833 192.36061,205.61034 208.12001,174.76849 C 229.92949,132.0869 244.0745,121.0378 276.96658,120.99051 C 292.28176,120.96847 297.73268,122.57499 308.90312,130.4031 C 336.78213,149.94016 351.9622,190.39693 348.62804,236.27272 C 344.40474,294.37435 316.88374,329.61601 275.73415,329.61601 C 253.15086,329.61601 238.59451,321.69526 227.00729,303.10156 C 216.82976,286.76927 212.24334,254.42288 218.08805,240.19369 C 220.89208,233.36732 221.39892,233.13578 221.58223,238.59686 C 221.91916,248.63689 233.34159,264.95549 243.82827,270.37835 C 269.55794,283.68369 306.49479,266.96693 321.10832,235.4032 C 332.20339,211.4394 326.25105,165.21656 311.02084,157.06552 C 307.83453,155.36024 299.96089,153.96502 293.5244,153.96502 C 279.84214,153.96502 269.09709,163.80155 254.03263,190.11774 C 248.82442,199.21613 240.05943,210.97175 234.55486,216.24128 C 225.61134,224.80312 222.41769,225.82225 204.53067,225.82225 L 184.51412,225.82225 L 190.98415,240.19369 C 200.2451,260.76437 199.80694,294.18704 190.00976,314.53347 C 181.35272,332.51252 161.33618,350.71469 145.33374,355.16013 C 129.75572,359.4876 104.38789,358.9281 90.456847,353.9498 z M 165.8338,75.923739 C 156.97908,60.814399 151.52974,32.606158 157.46546,32.606158 C 164.43775,47.732319 178.73037,61.227101 194.03409,70.643259 C 221.52091,83.949329 249.39257,78.578529 279.84247,54.108239 C 286.54595,48.721279 292.48231,44.913138 293.0345,45.645698 C 300.4697,57.184233 313.331,66.613261 317.58219,80.021449 C 317.58219,85.678729 293.22867,101.96033 274.01214,109.15007 C 226.38264,122.8706 193.96598,117.44304 165.8338,75.923739 z M 189.83603,40.997228 L 220.84514,6.6137488 L 255.30593,38.514418 C 243.51876,48.222549 235.00994,63.289118 221.54391,70.930009 C 210.90372,63.086273 195.02308,53.837816 189.83603,40.997228 z"
     style="fill:#444444"
     id="path815" />
</svg>
